public/img/high-quality.svg

<svg width="50" height="41" viewBox="0 0 50 41" fill="none" xmlns="http://www.w3.org/2000/svg">
<path d="M24.7656 2.40625L22.8906 6.15625L22.7344 6.46875L22.4219 6.54688L18.3594 7.09375C18.125 7.17188 17.9688 7.40625 18.2031 7.5625L21.0938 10.4531L21.3281 10.6875V11L20.625 15.0625C20.5469 15.2969 20.7812 15.4531 21.0156 15.375L24.6875 13.4219L25 13.2656L25.2344 13.4219L28.9062 15.375C29.1406 15.4531 29.375 15.2969 29.2969 15.0625L28.5938 11V10.6875L28.8281 10.4531L31.7188 7.5625C31.9531 7.40625 31.7969 7.17188 31.5625 7.09375L27.5 6.46875H27.1875L27.0312 6.15625L25.2344 2.40625H25.1562C25.0781 2.25 24.8438 2.25 24.6875 2.40625H24.7656ZM23.5938 1.85938C24.2188 0.765625 25.7812 0.765625 26.3281 1.85938L28.0469 5.29688L31.7969 5.84375C33.0469 6.07812 33.5156 7.5625 32.6562 8.5L29.9219 11.0781L30.5469 14.8281C30.7812 16.0781 29.4531 17.0156 28.3594 16.4688L25 14.6719L21.6406 16.4688H21.5625C20.4688 17.0938 19.2188 16.0781 19.375 14.9062L20 11.1562L17.2656 8.5V8.42188C16.4062 7.5625 16.875 6.07812 18.125 5.84375L21.875 5.29688L23.5938 1.85938ZM21.25 22.25C19.8438 22.25 18.75 23.4219 18.75 24.75V37.25C18.75 38.6562 19.8438 39.75 21.25 39.75H28.75C30.0781 39.75 31.25 38.6562 31.25 37.25V24.75C31.25 23.4219 30.0781 22.25 28.75 22.25H21.25ZM17.5 24.75C17.5 22.7188 19.1406 21 21.25 21H28.75C30.7812 21 32.5 22.7188 32.5 24.75V37.25C32.5 39.3594 30.7812 41 28.75 41H21.25C19.1406 41 17.5 39.3594 17.5 37.25V24.75ZM3.75 27.25C2.34375 27.25 1.25 28.4219 1.25 29.75V37.25C1.25 38.6562 2.34375 39.75 3.75 39.75H11.25C12.5781 39.75 13.75 38.6562 13.75 37.25V29.75C13.75 28.4219 12.5781 27.25 11.25 27.25H3.75ZM0 29.75C0 27.7188 1.64062 26 3.75 26H11.25C13.2812 26 15 27.7188 15 29.75V37.25C15 39.3594 13.2812 41 11.25 41H3.75C1.64062 41 0 39.3594 0 37.25V29.75ZM46.25 32.25H38.75C37.3438 32.25 36.25 33.4219 36.25 34.75V37.25C36.25 38.6562 37.3438 39.75 38.75 39.75H46.25C47.5781 39.75 48.75 38.6562 48.75 37.25V34.75C48.75 33.4219 47.5781 32.25 46.25 32.25ZM38.75 31H46.25C48.2812 31 50 32.7188 50 34.75V37.25C50 39.3594 48.2812 41 46.25 41H38.75C36.6406 41 35 39.3594 35 37.25V34.75C35 32.7188 36.6406 31 38.75 31Z" fill="#1A75BB"/>
</svg>

<svg xmlns="http://www.w3.org/2000/svg" width="50" height="41" fill="none"><path fill="#1A75BB" d="m24.766 2.406-1.875 3.75-.157.313-.312.078-4.063.547c-.234.078-.39.312-.156.468l2.89 2.891.235.235V11l-.703 4.063c-.078.234.156.39.39.312l3.672-1.953.313-.156.234.156 3.672 1.953c.235.078.469-.078.39-.312L28.595 11v-.312l.234-.235 2.89-2.89c.235-.157.079-.391-.155-.47L27.5 6.47h-.312l-.157-.313-1.797-3.75h-.078c-.078-.156-.312-.156-.468 0zm-1.172-.547c.625-1.093 2.187-1.093 2.734 0l1.719 3.438 3.75.547c1.25.234 1.719 1.718.86 2.656l-2.735 2.578.625 3.75c.234 1.25-1.094 2.188-2.188 1.64L25 14.673l-3.36 1.797h-.078c-1.093.625-2.343-.39-2.187-1.563l.625-3.75L17.266 8.5v-.078c-.86-.86-.391-2.344.859-2.578l3.75-.547zM21.25 22.25c-1.406 0-2.5 1.172-2.5 2.5v12.5c0 1.406 1.094 2.5 2.5 2.5h7.5c1.328 0 2.5-1.094 2.5-2.5v-12.5c0-1.328-1.172-2.5-2.5-2.5zm-3.75 2.5A3.75 3.75 0 0 1 21.25 21h7.5c2.031 0 3.75 1.719 3.75 3.75v12.5A3.75 3.75 0 0 1 28.75 41h-7.5c-2.11 0-3.75-1.64-3.75-3.75zm-13.75 2.5c-1.406 0-2.5 1.172-2.5 2.5v7.5c0 1.406 1.094 2.5 2.5 2.5h7.5c1.328 0 2.5-1.094 2.5-2.5v-7.5c0-1.328-1.172-2.5-2.5-2.5zM0 29.75A3.75 3.75 0 0 1 3.75 26h7.5c2.031 0 3.75 1.719 3.75 3.75v7.5A3.75 3.75 0 0 1 11.25 41h-7.5C1.64 41 0 39.36 0 37.25zm46.25 2.5h-7.5c-1.406 0-2.5 1.172-2.5 2.5v2.5c0 1.406 1.094 2.5 2.5 2.5h7.5c1.328 0 2.5-1.094 2.5-2.5v-2.5c0-1.328-1.172-2.5-2.5-2.5M38.75 31h7.5c2.031 0 3.75 1.719 3.75 3.75v2.5A3.75 3.75 0 0 1 46.25 41h-7.5C36.64 41 35 39.36 35 37.25v-2.5A3.75 3.75 0 0 1 38.75 31"/></svg>
